X: 1
T: Edge Lane
M: 4/4
L: 1/8
R: reel
K: Edor
|:E2BE cEBE|E2BE AFDF|E2BE cEBE|d2dB AFDF|
E2BE cEBE|E2BE AFDF|E2EG B2Bc|d2dBAFDF:|
|:B2Bd e2ed|Bdef gfed|B2Bd e2ef|g2g fedBA|
B2Bd e2ed|Bdef g2fg|a2ag f2fe|d2dB AFDF:|
